public/files/perm/idevices/base/az-quiz-game/export/exequextnumber.svg

<svg fill="none" height="24" viewBox="0 0 25 24" width="25" xmlns="http://www.w3.org/2000/svg" xmlns:xlink="http://www.w3.org/1999/xlink"><clipPath id="a"><path d="m.25 0h24v24h-24z"/></clipPath><g clip-path="url(#a)"><path d="m23.0529 6.74963h-4.0146l.9782-3.8005c.162-.62418-.2311-1.25712-.8731-1.41462-.6421-.15459-1.2932.22459-1.4552.84877l-1.1222 4.36635h-5.9257l.9781-3.8005c.162-.62418-.231-1.25712-.8731-1.41462-.6391-.15459-1.29315.22459-1.45517.84877l-1.12214 4.36635h-4.31454c-.66308 0-1.20015.5221-1.20015 1.1667 0 .64459.53707 1.16669 1.20015 1.16669h3.71446l-1.50018 5.83348h-4.61758c-.663083 0-1.20015.5221-1.20015 1.1667s.537067 1.1667 1.20015 1.1667h4.0145l-.97812 3.8005c-.16202.6242.23103 1.2571.87311 1.4146.09901.0233.19502.035.29104.035.53706 0 1.02612-.3529 1.16414-.8838l1.12214-4.3663h5.92574l-.9781 3.8005c-.162.6242.231 1.2571.8731 1.4146.099.0233.195.035.291.035.5371 0 1.0262-.3529 1.1642-.8838l1.1221-4.3663h4.3145c.6631 0 1.2002-.5221 1.2002-1.1667s-.5371-1.1667-1.2002-1.1667h-3.7144l1.5002-5.83348h4.6145c.6631 0 1.2002-.5221 1.2002-1.16669 0-.6446-.5371-1.1667-1.2002-1.1667zm-8.5871 8.16687h-5.92576l1.50016-5.83348h5.9258z" fill="#282573"/></g></svg>

<svg width="25" height="24" viewBox="0 0 25 24" fill="none" xmlns="http://www.w3.org/2000/svg">
<g clip-path="url(#clip0_290_2737)">
<path d="M23.0529 6.74963H19.0383L20.0165 2.94913C20.1785 2.32495 19.7854 1.69201 19.1434 1.53451C18.5013 1.37992 17.8502 1.7591 17.6882 2.38328L16.566 6.74963H10.6403L11.6184 2.94913C11.7804 2.32495 11.3874 1.69201 10.7453 1.53451C10.1062 1.37992 9.45215 1.7591 9.29013 2.38328L8.16799 6.74963H3.85345C3.19037 6.74963 2.6533 7.27173 2.6533 7.91633C2.6533 8.56092 3.19037 9.08302 3.85345 9.08302H7.56791L6.06773 14.9165H1.45015C0.787067 14.9165 0.25 15.4386 0.25 16.0832C0.25 16.7278 0.787067 17.2499 1.45015 17.2499H5.46465L4.48653 21.0504C4.32451 21.6746 4.71756 22.3075 5.35964 22.465C5.45865 22.4883 5.55466 22.5 5.65068 22.5C6.18774 22.5 6.6768 22.1471 6.81482 21.6162L7.93696 17.2499H13.8627L12.8846 21.0504C12.7226 21.6746 13.1156 22.3075 13.7577 22.465C13.8567 22.4883 13.9527 22.5 14.0487 22.5C14.5858 22.5 15.0749 22.1471 15.2129 21.6162L16.335 17.2499H20.6495C21.3126 17.2499 21.8497 16.7278 21.8497 16.0832C21.8497 15.4386 21.3126 14.9165 20.6495 14.9165H16.9351L18.4353 9.08302H23.0498C23.7129 9.08302 24.25 8.56092 24.25 7.91633C24.25 7.27173 23.7129 6.74963 23.0498 6.74963H23.0529ZM14.4658 14.9165H8.54004L10.0402 9.08302H15.966L14.4658 14.9165Z" fill="#282573"/>
</g>
<defs>
<clipPath id="clip0_290_2737">
<rect width="24" height="24" fill="white" transform="translate(0.25)"/>
</clipPath>
</defs>
</svg>
